X: 12520
T: Farewell To Ireland
R: reel
M: 4/4
K: Adorian
A3 c e3 f|gedB GBdB|A3 c e3 f|gedf eAAG|
A3 c e3 f|gedB d2 g2|edeg a2 ba|gedB BA A2:|

